public/static/img/app/success.svg

<svg xmlns="http://www.w3.org/2000/svg" width="20" height="20" viewBox="0 0 20 20" fill="none"><path d="M17.241 4.9285L10.783 1.1875C10.354 0.9375 9.665 0.9375 9.236 1.1875L8.158 1.8075L2.768 4.9285C2.339 5.1785 2 5.7785 2 6.2685V13.7405C2 14.2305 2.349 14.8405 2.769 15.0805L4.625 16.1505L9.226 18.8115C9.655 19.0615 10.344 19.0615 10.773 18.8115L17.231 15.0705C17.66 14.8205 18 14.2205 18 13.7305V6.2685C18.01 5.7785 17.66 5.1785 17.241 4.9285Z" fill="white"/><path d="M17.241 4.9285L10.783 1.1875C10.354 0.9375 9.665 0.9375 9.236 1.1875L8.158 1.8075L2.768 4.9285C2.339 5.1785 2 5.7785 2 6.2685V13.7405C2 14.2305 2.349 14.8405 2.769 15.0805L4.625 16.1505L9.226 18.8115C9.655 19.0615 10.344 19.0615 10.773 18.8115L17.231 15.0705C17.66 14.8205 18 14.2205 18 13.7305V6.2685C18.01 5.7785 17.66 5.1785 17.241 4.9285Z" fill="green"/><path d="M10.0002 12.7507C9.90172 12.751 9.80415 12.7317 9.71316 12.6939C9.62218 12.6561 9.53961 12.6007 9.47023 12.5307L6.47023 9.53074C6.40056 9.46107 6.3453 9.37837 6.3076 9.28734C6.26989 9.19632 6.25049 9.09876 6.25049 9.00024C6.25049 8.90172 6.26989 8.80416 6.3076 8.71314C6.3453 8.62211 6.40056 8.53941 6.47023 8.46974C6.53989 8.40007 6.6226 8.34481 6.71362 8.30711C6.80465 8.26941 6.90221 8.25 7.00073 8.25C7.09925 8.25 7.19681 8.26941 7.28783 8.30711C7.37886 8.34481 7.46156 8.40007 7.53123 8.46974L10.0002 10.9397L13.4702 7.46974C13.6109 7.32904 13.8018 7.25 14.0007 7.25C14.1997 7.25 14.3905 7.32904 14.5312 7.46974C14.6719 7.61044 14.751 7.80126 14.751 8.00024C14.751 8.19922 14.6719 8.39004 14.5312 8.53074L10.5312 12.5307C10.4616 12.6006 10.3788 12.656 10.2877 12.6938C10.1966 12.7315 10.0989 12.7509 10.0002 12.7507Z" fill="white"/></svg>

<svg xmlns="http://www.w3.org/2000/svg" width="20" height="20" fill="none"><path d="m17.241 4.928-6.458-3.74c-.429-.25-1.118-.25-1.547 0l-1.078.62-5.39 3.12c-.429.25-.768.85-.768 1.34v7.473c0 .49.349 1.1.769 1.34l1.856 1.07 4.601 2.66c.429.25 1.118.25 1.547 0l6.458-3.74c.429-.25.769-.85.769-1.34V6.268c.01-.49-.34-1.09-.759-1.34Z" fill="#fff"/><path d="m17.241 4.928-6.458-3.74c-.429-.25-1.118-.25-1.547 0l-1.078.62-5.39 3.12c-.429.25-.768.85-.768 1.34v7.473c0 .49.349 1.1.769 1.34l1.856 1.07 4.601 2.66c.429.25 1.118.25 1.547 0l6.458-3.74c.429-.25.769-.85.769-1.34V6.268c.01-.49-.34-1.09-.759-1.34Z" fill="green"/><path d="M10 12.75a.742.742 0 0 1-.53-.22l-3-3a.75.75 0 1 1 1.061-1.06l2.47 2.47 3.47-3.47a.75.75 0 0 1 1.06 1.06l-4 4a.748.748 0 0 1-.53.22Z" fill="#fff"/></svg>
